X:1
T:Lead Me, Father
T:Lead Me, Father
T:Mrs. Fannie L. Simpson
T:Nellie B. Sweets, 1902
T:Public Domain Courtesy of the Cyber Hymnal™
T:Public Domain Courtesy of the Cyber Hymnal™
C:Mrs. Fannie L. Simpson
Z:Public Domain
Z:Courtesy of the Cyber Hymnal™
%%score ( 1 2 ) ( 3 4 )
L:1/8
Q:1/4=100
M:4/4
K:Eb
V:1 treble 
V:2 treble 
V:3 bass 
V:4 bass 
V:1
"^Duet, Solo or Quartet" [GB]3 [EG] [Ac]2 [GB]2 | [GB]3 [FA] [EG]4 | [Ac]3 [Ac] [A=B][Ac][Ad][Ac] | %3
w: 1.~Lead me, Fa- ther,|lead, I pray,|For the night is dark and|
w: 2.~Lead me when the|morn- ing dawns,|Lest in paths of sin I|
w: 3.~Lead me in the|noon- day clear,|When night’s sha- dows all are|
w: 4.~When the even- ing|draw- eth on,|And my cour- age ebbs a-|
 ([Ac]4 [GB]2) z2 | [GB]3 [EG] [Ac]2 [GB]2 | [GB]3 [FA] [EG]4 | [Ge]3 [Ge] ([Bd][Ac]) ([GB][FA]) | %7
w: wild, *|And I can- not|see my way;|Fa- ther, lead * Thy *|
w: stray, *|Lest earth’s plea- sures|lure my soul,|Lead me in * the *|
w: gone, *|Lest I leave Thy|ten- der care,|Lest I dare * to *|
w: way, *|Lead me then till|comes the dawn|Of the ev- * er- *|
 [EG]3 [DF] E4 ||"^Refrain" e4- eBcB | e4- eBcB | [Bd]2 [Ac]2 [GB]2 [FA]2 | [EG]2 [FA]2 [GB]4 | %12
w: tremb- ling child.|||||
w: nar- row way.|||||
w: walk a- lone.|Lead * me, Fa- ther,|lead * me, Fa- ther,|For the night is|dark and wild;|
w: last- ing day.|||||
 e4- eBcB | [Bd]2 [Ac]2 [GB]2 [FA]2 | [EG]3 E [DF]3 [B,E] | [B,E]6 z2 |] %16
w: ||||
w: ||||
w: Lead * me, Fa- ther,|lead, O lead me,|Lead Thy tremb- ling|child.|
w: ||||
V:2
 x8 | x8 | x8 | x8 | x8 | x8 | x8 | x4 E4 || (GGGG) G2 G2 | (GGGG) G2 G2 | x8 | x8 | (GGGG) G2 G2 | %13
 x8 | x3 E x4 | x8 |] %16
V:3
 [E,E]3 [E,B,] [E,E]2 [E,E]2 | [E,B,]3 (C/D/) [E,E]4 | [A,E]3 [A,E] [A,D][A,E][A,E][A,E] | %3
w: ~ ~ ~ ~|~ ~ * ~|~ ~ ~ ~ ~ ~|
 (E2 D2 E2) z2 | [E,B,]3 [E,B,] [E,E]2 [E,E]2 | [D,B,]3 [D,B,] [E,B,]4 | %6
w: ~ * *|~ ~ ~ ~|~ ~ ~|
 [E,B,]3 [E,E] [A,E]2 ([=E,_D][F,C]) | (B,=A,_A,)[B,,A,] [E,G,]4 || %8
w: ~ ~ ~ ~ *|~ * * ~ ~|
 [E,B,][E,B,][E,B,][E,B,] [E,B,]2 [E,E]2 | [E,B,][E,B,][E,B,][E,B,] [E,B,]2 [E,E]2 | %10
w: Lead, O lead me, Fa- ther,|Lead, O lead me, Fa- ther,|
 [B,F]2 [B,F]2 [B,,B,]2 B,2 | (B,E)DC [E,B,]4 | [E,B,][E,B,][E,B,][E,B,] [E,B,]2 [E,E]2 | %13
w: ~ ~ the night|is * dark and wild;|Lead, O lead me, Fa- ther,|
 [A,E]2 [A,E]2 [=E,_D]2 [F,C]2 | [B,,B,]3 [B,,G,] [B,,A,]3 [E,G,] | [E,G,]6 z2 |] %16
w: |||
V:4
 x8 | x3 E, x4 | x8 | E,6 x2 | x8 | x8 | x8 | B,,3 x5 || x8 | x8 | x6 (C,D,) | E,2 E,2 x4 | x8 | %13
 x8 | x8 | x8 |] %16

